; Postprocessed by [ArcWelder](https://github.com/FormerLurker/ArcWelderLib)
; Copyright(C) 2020 - Brad Hochgesang
; Version: 1.1.1-22-gb57d34b, Branch: devel, BuildDate: 2021-11-13T16:47:14Z
; resolution=0.05mm
; path_tolerance=5.0%
; max_radius=9999.00mm
; g90_influences_extruder=True
; default_xyz_precision=3
; default_e_precision=5
; extrusion_rate_variance_percent=5.0%

; generated by SuperSlicer 2.3.57 on 2022-01-09 at 21:54:31 UTC

; 

; external perimeters extrusion width = 0.42mm
; perimeters extrusion width = 0.45mm
; infill extrusion width = 0.45mm
; solid infill extrusion width = 0.45mm
; top infill extrusion width = 0.24mm
; first layer extrusion width = 0.40mm


M201 X1000 Y1000 Z100 E5000 ; sets maximum accelerations, mm/sec^2
M203 X500 Y500 Z10 E60 ; sets maximum feedrates, mm/sec
M204 P1000 R1000 T1500 ; sets acceleration (P, T) and retract acceleration (R), mm/sec^2
M205 X8.00 Y8.00 Z0.40 E5.00 ; sets the jerk limits, mm/sec
M205 S0 T0 ; sets the minimum extruding and travel feed rate, mm/sec
;TYPE:Custom
; custom gcode: start_gcode
M107 ; disable fan
G90 ; use absolute coordinates
M83 ; extruder relative mode
M92 E97 ; set e-steps
M851 Z-0.19 ; Set Z-Probe Offset
M900 K0.9 ; set k-factor
M104 S200 ; set extruder temp
M140 S60 ; set bed temp
M190 S60 ; wait for bed temp
M109 S200 ; wait for extruder temp
G28 ; home all
G29 L1 
G29 A 
G1 Z2 F240
G1 X2 Y10 F3000
G1 Z0.28 F240
G92 E0
G1 E4
G1 Y190 E15 F1500 ; intro line
G1 X2.3 F5000
G92 E0
G1 Y10 E15 F1200 ; intro line
G92 E0
; custom gcode end: start_gcode
M107 ; disable fan
G21 ; set units to millimeters
G90 ; use absolute coordinates
M83 ; use relative distances for extrusion
; custom gcode: start_filament_gcode
; Filament gcode
; custom gcode end: start_filament_gcode
;LAYER_CHANGE
M117 INDICATOR-Layer1
;Z:0.24
;HEIGHT:0.24
; custom gcode: before_layer_gcode
;BEFORE_LAYER_CHANGE
G92 E0
;LAYER:0
;0
;0.24

; custom gcode end: before_layer_gcode

G1 E-4 F2400 ; retract
G1 Z0.24 F9000 ; move to next layer (0)
; custom gcode: layer_gcode
;AFTER_LAYER_CHANGE
;0.24
; custom gcode end: layer_gcode

G1 X56.704 Y85.077 ; move to first Skirt point (0.000000 == 1500.000000)
G1 E4 F2400 ; unretract
;TYPE:Skirt
;WIDTH:0.4
G1 F1200
G2 X53.886 Y90.221 I3.794 J5.422 E0.21359; Skirt
G1 X53.882 Y140.62 E1.77273 ; Skirt
G2 X60.385 Y147.119 I6.619 J-0.120 E0.35724; Skirt
G1 X170.537 Y147.12 E3.87445 ; Skirt
G2 X177.104 Y140.951 I-0.038 J-6.620 E0.34833; Skirt
G1 X177.112 Y90.172 E1.78609 ; Skirt
G1 X176.942 Y88.978 E0.04242 ; Skirt
G1 X176.52 Y87.747 E0.0458 ; Skirt
G1 X175.866 Y86.623 E0.04573 ; Skirt
G1 X175.074 Y85.715 E0.04236 ; Skirt
G1 X174.051 Y84.913 E0.04572 ; Skirt
G1 X172.98 Y84.362 E0.04239 ; Skirt
G1 X171.73 Y83.996 E0.0458 ; Skirt
G1 X170.525 Y83.88 E0.04259 ; Skirt
G1 X60.417 Y83.881 E3.87292 ; Skirt
G2 X56.756 Y85.046 I0.072 J6.562 E0.13706; Skirt
G1 X56.935 Y85.344 F9000 ; move to first Skirt point (0.000000 == 1500.000000)
G1 F1200
G2 X54.234 Y90.241 I3.554 J5.154 E0.20378; Skirt
G1 X54.23 Y140.616 E1.77188 ; Skirt
G1 X54.41 Y141.997 E0.04901 ; Skirt
G2 X60.396 Y146.770 I6.089 J-1.497 E0.28947; Skirt
G1 X170.533 Y146.771 E3.87393 ; Skirt
G2 X172.003 Y146.588 I-0.023 J-6.182 E0.05220; Skirt
G1 X173.317 Y146.103 E0.04926 ; Skirt
G2 X176.757 Y140.927 I-2.817 J-5.603 E0.22854; Skirt
G1 X176.764 Y90.194 E1.78447 ; Skirt
G1 X176.604 Y89.061 E0.04025 ; Skirt
G1 X176.204 Y87.893 E0.04342 ; Skirt
G1 X175.638 Y86.905 E0.04005 ; Skirt
G1 X174.835 Y85.968 E0.0434 ; Skirt
G1 X173.862 Y85.206 E0.04347 ; Skirt
G1 X172.848 Y84.685 E0.04011 ; Skirt
G1 X171.665 Y84.338 E0.04337 ; Skirt
G1 X170.525 Y84.229 E0.04028 ; Skirt
G1 X60.421 Y84.229 E3.87279 ; Skirt
G1 X59.031 Y84.403 E0.04926 ; Skirt
G2 X56.987 Y85.313 I1.374 J5.837 E0.07910; Skirt
G1 X57.18 Y85.595 F9000 ; move to first Skirt point (0.000000 == 1500.000000)
G1 F1200
G2 X54.582 Y90.259 I3.320 J4.905 E0.19465; Skirt
G1 X54.578 Y140.611 E1.77106 ; Skirt
G1 X54.748 Y141.912 E0.04614 ; Skirt
G2 X60.404 Y146.422 I5.753 J-1.413 E0.27350; Skirt
G1 X170.53 Y146.423 E3.87355 ; Skirt
G2 X171.923 Y146.249 I-0.030 J-5.905 E0.04946; Skirt
G1 X173.156 Y145.794 E0.04624 ; Skirt
G2 X176.415 Y140.803 I-2.658 J-5.295 E0.21957; Skirt
G1 X176.416 Y90.212 E1.77946 ; Skirt
G1 X176.265 Y89.143 E0.03796 ; Skirt
G1 X175.886 Y88.037 E0.04114 ; Skirt
G1 X175.354 Y87.107 E0.0377 ; Skirt
G1 X174.593 Y86.219 E0.04112 ; Skirt
G1 X173.673 Y85.499 E0.04111 ; Skirt
G1 X172.719 Y85.009 E0.03772 ; Skirt
G1 X171.597 Y84.68 E0.04112 ; Skirt
G1 X170.525 Y84.577 E0.03789 ; Skirt
G1 X60.422 Y84.578 E3.87273 ; Skirt
G1 X59.118 Y84.741 E0.04624 ; Skirt
G2 X57.232 Y85.565 I1.314 J5.579 E0.07273; Skirt
G1 X57.409 Y85.864 F9000 ; move to first Skirt point (0.000000 == 1500.000000)
G1 F1200
G1 X57.378 Y85.882 E0.00126 ; Skirt
G2 X54.930 Y90.276 I3.125 J4.620 E0.18341; Skirt
G1 X54.927 Y140.606 E1.77028 ; Skirt
G1 X55.085 Y141.822 E0.04315 ; Skirt
G1 X55.504 Y142.973 E0.04308 ; Skirt
G2 X60.413 Y146.074 I4.999 J-2.477 E0.21463; Skirt
G1 X170.528 Y146.074 E3.87318 ; Skirt
G1 X171.842 Y145.91 E0.04656 ; Skirt
G1 X172.996 Y145.484 E0.04326 ; Skirt
G2 X176.067 Y140.781 I-2.494 J-4.982 E0.20692; Skirt
G1 X176.068 Y90.229 E1.77813 ; Skirt
G1 X175.927 Y89.226 E0.03562 ; Skirt
G1 X175.569 Y88.182 E0.03883 ; Skirt
G1 X175.014 Y87.229 E0.03879 ; Skirt
G1 X174.352 Y86.471 E0.03539 ; Skirt
G1 X173.484 Y85.791 E0.03878 ; Skirt
G1 X172.588 Y85.332 E0.03541 ; Skirt
G1 X171.529 Y85.021 E0.03883 ; Skirt
G1 X170.525 Y84.926 E0.03547 ; Skirt
G1 X60.424 Y84.926 E3.87267 ; Skirt
G1 X59.2 Y85.08 E0.0434 ; Skirt
G1 X57.962 Y85.537 E0.04639 ; Skirt
G1 X57.46 Y85.834 E0.02051 ; Skirt
G1 E-4 F2400 ; retract
G1 X131.904 Y123.939 F9000 ; move to first Internal perimeter point (0.000000 == 1500.000000)
G1 E4 F2400 ; unretract
;TYPE:Internal perimeter
G1 F1200
G2 X131.951 Y123.848 I4.097 J2.059 E1.00956; Internal perimeter
G1 X131.932 Y123.886 E0.00147 ; Internal perimeter
G1 X132.242 Y124.046 F9000 ; move to first Internal perimeter point (0.000000 == 1500.000000)
G1 F1200
G2 X132.351 Y123.848 I3.764 J1.943 E0.92877; Internal perimeter
G2 X132.270 Y123.993 I1.895 J1.154 E0.00584; Internal perimeter
G1 X132.575 Y124.16 F9000 ; move to first External perimeter point (0.000000 == 1500.000000)
;TYPE:External perimeter
G1 F1200
G1 X132.567 Y124.175 E0.00064 ; External perimeter
G1 X132.527 Y124.252 E0.00304 ; External perimeter
G2 X132.604 Y124.107 I3.472 J1.751 E0.85452; External perimeter
;WIPE_START
G1 X132.557 Y124.16 F9000 ; move inwards before travel
;WIPE_END
G1 E-4 F2400 ; retract
G1 X134.829 Y133.067 F9000 ; move to first Internal perimeter point (0.000000 == 1500.000000)
G1 E4 F2400 ; unretract
;TYPE:Internal perimeter
G1 F1200
G2 X134.887 Y133.052 I1.177 J4.432 E1.01104; Internal perimeter
G1 X134.973 Y133.39 F9000 ; move to first Internal perimeter point (0.000000 == 1500.000000)
G1 F1200
G2 X135.031 Y133.376 I1.023 J4.111 E0.93462; Internal perimeter
G1 X135.11 Y133.715 F9000 ; move to first External perimeter point (0.000000 == 1500.000000)
;TYPE:External perimeter
G1 F1200
G2 X135.250 Y133.685 I0.884 J3.786 E0.85529; External perimeter
G1 X135.169 Y133.702 E0.00291 ; External perimeter
;WIPE_START
G1 X135.09 Y133.693 F9000 ; move inwards before travel
;WIPE_END
G1 E-4 F2400 ; retract
G1 X151.139 Y132.355 F9000 ; move to first Internal perimeter point (0.000000 == 1500.000000)
G1 E4 F2400 ; unretract
;TYPE:Internal perimeter
G1 F1200
G2 X151.126 Y132.154 I7.562 J-0.590 E1.66850; Internal perimeter
G2 X151.135 Y132.295 I5.381 J-0.273 E0.00499; Internal perimeter
G1 X151.482 Y132.27 F9000 ; move to first Internal perimeter point (0.000000 == 1500.000000)
G1 F1200
G2 X151.469 Y132.039 I7.218 J-0.522 E1.59194; Internal perimeter
G2 X151.478 Y132.210 I68.595 J-3.524 E0.00603; Internal perimeter
G1 X151.826 Y132.189 F9000 ; move to first External perimeter point (0.000000 == 1500.000000)
;TYPE:External perimeter
G1 F1200
G2 X151.818 Y132.025 I6.875 J-0.418 E1.51787; External perimeter
G1 X151.823 Y132.129 E0.00367 ; External perimeter
;WIPE_START
G1 X151.81 Y132.2 F9000 ; move inwards before travel
;WIPE_END
G1 E-4 F2400 ; retract
G1 X117.996 Y131.575 F9000 ; move to first Internal perimeter point (0.000000 == 1500.000000)
G1 E4 F2400 ; unretract
;TYPE:Internal perimeter
G1 F1200
G2 X117.989 Y129.276 I-24.471 J-1.075 E0.08086; Internal perimeter
G2 X115.013 Y126.503 I-2.988 J0.224 E0.15732; Internal perimeter
G1 X95.988 Y126.503 E0.66918 ; Internal perimeter
G2 X93.004 Y129.425 I0.010 J2.995 E0.16257; Internal perimeter
G2 X93.011 Y131.724 I24.471 J1.075 E0.08086; Internal perimeter
G2 X95.988 Y134.497 I2.990 J-0.226 E0.15732; Internal perimeter
G1 X115.013 Y134.497 E0.66918 ; Internal perimeter
G2 X117.994 Y131.635 I-0.011 J-2.995 E0.16046; Internal perimeter
G1 X117.645 Y131.617 F9000 ; move to first Internal perimeter point (0.000000 == 1500.000000)
G1 F1200
G1 X117.648 Y131.566 E0.0018 ; Internal perimeter
G1 X117.648 Y129.434 E0.07499 ; Internal perimeter
G2 X115.008 Y126.852 I-2.645 J0.064 E0.14372; Internal perimeter
G1 X95.992 Y126.852 E0.66887 ; Internal perimeter
G2 X93.352 Y129.434 I0.008 J2.649 E0.14372; Internal perimeter
G1 X93.352 Y131.566 E0.07499 ; Internal perimeter
G2 X95.992 Y134.148 I2.647 J-0.066 E0.14372; Internal perimeter
G1 X115.008 Y134.148 E0.66887 ; Internal perimeter
G2 X117.642 Y131.677 I-0.007 J-2.647 E0.13979; Internal perimeter
G1 X117.294 Y131.672 F9000 ; move to first External perimeter point (0.000000 == 1500.000000)
;TYPE:External perimeter
G1 F1200
G1 X117.3 Y131.557 E0.00403 ; External perimeter
G1 X117.3 Y129.443 E0.07438 ; External perimeter
G2 X115.004 Y127.200 I-2.300 J0.057 E0.12482; External perimeter
G1 X95.996 Y127.2 E0.66857 ; External perimeter
G2 X93.701 Y129.443 I0.005 J2.300 E0.12482; External perimeter
G2 X93.706 Y131.672 I25.636 J1.057 E0.07841; External perimeter
G2 X95.996 Y133.800 I2.295 J-0.174 E0.12079; External perimeter
G1 X115.004 Y133.8 E0.66857 ; External perimeter
G2 X117.288 Y131.732 I-0.003 J-2.298 E0.11867; External perimeter
;WIPE_START
G1 X117.397 Y131.621 F9000 ; move inwards before travel
;WIPE_END
G1 E-4 F2400 ; retract
G1 X103.49 Y139.054 F9000 ; move to first Internal perimeter point (0.000000 == 1500.000000)
G1 E4 F2400 ; unretract
;TYPE:Internal perimeter
G1 F1200
G2 X101.429 Y137.678 I-2.229 J1.107 E0.09128; Internal perimeter
G1 X95.572 Y137.678 E0.20601 ; Internal perimeter
G2 X93.253 Y140.603 I0.234 J2.567 E0.14721; Internal perimeter
G2 X95.572 Y142.922 I2.487 J-0.168 E0.12587; Internal perimeter
G1 X101.429 Y142.922 E0.20601 ; Internal perimeter
G2 X103.747 Y139.997 I-0.235 J-2.567 E0.14722; Internal perimeter
G2 X103.518 Y139.108 I-2.440 J0.154 E0.03248; Internal perimeter
G1 X103.2 Y139.25 F9000 ; move to first Internal perimeter point (0.000000 == 1500.000000)
G1 F1200
G2 X101.411 Y138.027 I-1.938 J0.915 E0.07991; Internal perimeter
G1 X95.589 Y138.027 E0.2048 ; Internal perimeter
G2 X93.602 Y140.014 I0.148 J2.135 E0.10781; Internal perimeter
G2 X95.222 Y142.517 I2.249 J0.320 E0.11490; Internal perimeter
G2 X95.589 Y142.573 I0.457 J-1.764 E0.01306; Internal perimeter
G1 X101.411 Y142.573 E0.2048 ; Internal perimeter
G2 X103.399 Y140.586 I-0.149 J-2.137 E0.10781; Internal perimeter
G2 X103.223 Y139.306 I-2.355 J-0.328 E0.04593; Internal perimeter
G1 X102.901 Y139.439 F9000 ; move to first External perimeter point (0.000000 == 1500.000000)
;TYPE:External perimeter
G1 F1200
G2 X101.394 Y138.375 I-1.637 J0.719 E0.06814; External perimeter
G1 X95.606 Y138.375 E0.2036 ; External perimeter
G2 X93.950 Y140.031 I0.135 J1.791 E0.08972; External perimeter
G2 X95.307 Y142.178 I1.907 J0.297 E0.09801; External perimeter
G2 X95.606 Y142.225 I0.377 J-1.426 E0.01065; External perimeter
G1 X101.394 Y142.225 E0.2036 ; External perimeter
G2 X103.050 Y140.569 I-0.135 J-1.791 E0.08972; External perimeter
G2 X102.924 Y139.495 I-2.037 J-0.305 E0.03841; External perimeter
;WIPE_START
G1 X102.927 Y139.405 F9000 ; move inwards before travel
;WIPE_END
G1 E-4 F2400 ; retract
G1 X78.188 Y109.71 F9000 ; move to first Internal perimeter point (0.000000 == 1500.000000)
G1 E4 F2400 ; unretract
;TYPE:Internal perimeter
G1 F1200
G2 X78.053 Y109.821 I-7.687 J-9.211 E2.64422; Internal perimeter
G1 X78.142 Y109.749 E0.00403 ; Internal perimeter
G1 X77.915 Y109.483 F9000 ; move to first Internal perimeter point (0.000000 == 1500.000000)
G1 F1200
G2 X77.668 Y109.682 I-7.431 J-8.970 E2.56308; Internal perimeter
G2 X77.869 Y109.521 I-3.899 J-5.073 E0.00905; Internal perimeter
G1 X77.648 Y109.252 F9000 ; move to first External perimeter point (0.000000 == 1500.000000)
;TYPE:External perimeter
G1 F1200
G2 X77.534 Y109.344 I-7.154 J-8.748 E2.49295; External perimeter
G1 X77.602 Y109.289 E0.00305 ; External perimeter
;WIPE_START
G1 X77.703 Y109.272 F9000 ; move inwards before travel
;WIPE_END
G1 E-4 F2400 ; retract
G1 X56.497 Y109.272 F9000 ; move to first Internal perimeter point (0.000000 == 1500.000000)
G1 E4 F2400 ; unretract
;TYPE:Internal perimeter
G1 F1200
G1 X56.497 Y90.505 E0.66012 ; Internal perimeter
G3 X61.023 Y86.497 I4.075 J0.043 E0.23983; Internal perimeter
G1 X78.444 Y86.497 E0.61276 ; Internal perimeter
G1 X78.941 Y86.497 E0.01751 ; Internal perimeter
G1 X96.86 Y86.497 E0.63027 ; Internal perimeter
G1 X97.358 Y86.497 E0.01751 ; Internal perimeter
G1 X115.276 Y86.497 E0.63027 ; Internal perimeter
G1 X115.774 Y86.497 E0.01751 ; Internal perimeter
G1 X133.693 Y86.497 E0.63027 ; Internal perimeter
G1 X134.191 Y86.497 E0.01751 ; Internal perimeter
G1 X152.109 Y86.497 E0.63027 ; Internal perimeter
G1 X152.607 Y86.497 E0.01751 ; Internal perimeter
G1 X170.518 Y86.497 E0.63001 ; Internal perimeter
G3 X174.503 Y90.460 I-0.017 J4.002 E0.21921; Internal perimeter
G1 X174.503 Y140.54 E1.7615 ; Internal perimeter
G3 X170.027 Y144.503 I-4.043 J-0.057 E0.23650; Internal perimeter
G1 X115.774 Y144.503 E1.90831 ; Internal perimeter
G1 X115.276 Y144.503 E0.01751 ; Internal perimeter
G1 X60.527 Y144.503 E1.92573 ; Internal perimeter
G3 X56.497 Y140.495 I-0.025 J-4.005 E0.22239; Internal perimeter
G1 X56.497 Y109.332 E1.09611 ; Internal perimeter
G1 X56.149 Y109.332 F9000 ; move to first Internal perimeter point (0.000000 == 1500.000000)
G1 F1200
G1 X56.149 Y90.503 E0.66229 ; Internal perimeter
G3 X61.023 Y86.149 I4.406 J0.027 E0.25872; Internal perimeter
G1 X78.444 Y86.149 E0.61276 ; Internal perimeter
G1 X78.941 Y86.149 E0.01751 ; Internal perimeter
G1 X96.86 Y86.149 E0.63027 ; Internal perimeter
G1 X97.358 Y86.149 E0.01751 ; Internal perimeter
G1 X115.276 Y86.149 E0.63027 ; Internal perimeter
G1 X115.774 Y86.149 E0.01751 ; Internal perimeter
G1 X133.693 Y86.149 E0.63027 ; Internal perimeter
G1 X134.191 Y86.149 E0.01751 ; Internal perimeter
G1 X152.109 Y86.149 E0.63027 ; Internal perimeter
G1 X152.607 Y86.149 E0.01751 ; Internal perimeter
G1 X170.521 Y86.149 E0.6301 ; Internal perimeter
G3 X174.851 Y90.457 I-0.020 J4.350 E0.23795; Internal perimeter
G1 X174.851 Y140.543 E1.76175 ; Internal perimeter
G3 X170.027 Y144.851 I-4.389 J-0.059 E0.25531; Internal perimeter
G1 X115.774 Y144.851 E1.90831 ; Internal perimeter
G1 X115.276 Y144.851 E0.01751 ; Internal perimeter
G1 X60.526 Y144.851 E1.92576 ; Internal perimeter
G3 X56.149 Y140.497 I-0.027 J-4.349 E0.24124; Internal perimeter
G1 X56.149 Y109.392 E1.09406 ; Internal perimeter
G1 X55.8 Y109.392 F9000 ; move to first External perimeter point (0.000000 == 1500.000000)
;TYPE:External perimeter
G1 F1200
G1 X55.8 Y90.502 E0.66447 ; External perimeter
G3 X61.023 Y85.800 I4.743 J0.016 E0.27830; External perimeter
G1 X78.444 Y85.8 E0.61276 ; External perimeter
G1 X78.941 Y85.8 E0.01751 ; External perimeter
G1 X96.86 Y85.8 E0.63027 ; External perimeter
G1 X97.358 Y85.8 E0.01751 ; External perimeter
G1 X115.276 Y85.8 E0.63027 ; External perimeter
G1 X115.774 Y85.8 E0.01751 ; External perimeter
G1 X133.693 Y85.8 E0.63027 ; External perimeter
G1 X134.191 Y85.8 E0.01751 ; External perimeter
G1 X152.109 Y85.8 E0.63027 ; External perimeter
