; Postprocessed by [ArcWelder](https://github.com/FormerLurker/ArcWelderLib)
; Copyright(C) 2020 - Brad Hochgesang
; Version: 1.1.1-22-gb57d34b, Branch: devel, BuildDate: 2021-11-13T16:47:14Z
; resolution=0.05mm
; path_tolerance=5.0%
; max_radius=9999.00mm
; g90_influences_extruder=True
; default_xyz_precision=3
; default_e_precision=5
; extrusion_rate_variance_percent=5.0%

; generated by SuperSlicer 2.3.57 on 2022-01-09 at 22:51:18 UTC

; 

; external perimeters extrusion width = 0.42mm
; perimeters extrusion width = 0.45mm
; infill extrusion width = 0.45mm
; solid infill extrusion width = 0.45mm
; top infill extrusion width = 0.24mm
; first layer extrusion width = 0.40mm


M201 X1000 Y1000 Z100 E5000 ; sets maximum accelerations, mm/sec^2
M203 X500 Y500 Z10 E60 ; sets maximum feedrates, mm/sec
M204 P1000 R1000 T1500 ; sets acceleration (P, T) and retract acceleration (R), mm/sec^2
M205 X8.00 Y8.00 Z0.40 E5.00 ; sets the jerk limits, mm/sec
M205 S0 T0 ; sets the minimum extruding and travel feed rate, mm/sec
;TYPE:Custom
; custom gcode: start_gcode
M107 ; disable fan
G90 ; use absolute coordinates
M83 ; extruder relative mode
M92 E97 ; set e-steps
M851 Z-0.19 ; Set Z-Probe Offset
M900 K0.9 ; set k-factor
M104 S200 ; set extruder temp
M140 S60 ; set bed temp
M190 S60 ; wait for bed temp
M109 S200 ; wait for extruder temp
G28 ; home all
G29 L1 
G29 A 
G1 Z2 F240
G1 X2 Y10 F3000
G1 Z0.28 F240
G92 E0
G1 E4
G1 Y190 E15 F1500 ; intro line
G1 X2.3 F5000
G92 E0
G1 Y10 E15 F1200 ; intro line
G92 E0
; custom gcode end: start_gcode
M107 ; disable fan
G21 ; set units to millimeters
G90 ; use absolute coordinates
M83 ; use relative distances for extrusion
; custom gcode: start_filament_gcode
; Filament gcode
; custom gcode end: start_filament_gcode
;LAYER_CHANGE
M117 INDICATOR-Layer1
;Z:0.24
;HEIGHT:0.24
; custom gcode: before_layer_gcode
;BEFORE_LAYER_CHANGE
G92 E0
;LAYER:0
;0
;0.24

; custom gcode end: before_layer_gcode

G1 E-4 F2400 ; retract
G1 Z0.24 F9000 ; move to next layer (0)
; custom gcode: layer_gcode
;AFTER_LAYER_CHANGE
;0.24
; custom gcode end: layer_gcode

G1 X56.751 Y85.044 ; move to first Skirt point (0.000000 == 1500.000000)
G1 E4 F2400 ; unretract
;TYPE:Skirt
;WIDTH:0.4
G1 F1200
G2 X53.888 Y90.172 I3.751 J5.458 E0.21385; Skirt
G1 X53.881 Y140.571 E1.77276 ; Skirt
G2 X60.350 Y147.118 I6.619 J-0.071 E0.35771; Skirt
G1 X170.548 Y147.12 E3.8761 ; Skirt
G2 X177.106 Y140.927 I-0.050 J-6.621 E0.34879; Skirt
G1 X177.113 Y90.197 E1.78437 ; Skirt
G1 X176.938 Y88.958 E0.04401 ; Skirt
G1 X176.529 Y87.766 E0.04436 ; Skirt
G1 X175.904 Y86.677 E0.04413 ; Skirt
G1 X175.051 Y85.693 E0.04583 ; Skirt
G1 X174.056 Y84.917 E0.04438 ; Skirt
G1 X172.939 Y84.346 E0.04413 ; Skirt
G1 X171.734 Y83.996 E0.04413 ; Skirt
G1 X170.488 Y83.88 E0.04402 ; Skirt
G1 X60.475 Y83.88 E3.86956 ; Skirt
G2 X56.803 Y85.014 I0.013 J6.555 E0.13713; Skirt
G1 X56.98 Y85.312 F9000 ; move to first Skirt point (0.000000 == 1500.000000)
G1 F1200
G2 X54.236 Y90.191 I3.511 J5.186 E0.20397; Skirt
G1 X54.229 Y140.567 E1.77191 ; Skirt
G2 X60.357 Y146.770 I6.271 J-0.067 E0.33889; Skirt
G1 X170.545 Y146.771 E3.87573 ; Skirt
G2 X176.758 Y140.900 I-0.045 J-6.271 E0.33062; Skirt
G1 X176.765 Y90.217 E1.7827 ; Skirt
G1 X176.599 Y89.04 E0.0418 ; Skirt
G1 X176.214 Y87.916 E0.04181 ; Skirt
G1 X175.624 Y86.884 E0.0418 ; Skirt
G1 X174.846 Y85.979 E0.042 ; Skirt
G1 X173.915 Y85.24 E0.04181 ; Skirt
G1 X172.816 Y84.672 E0.0435 ; Skirt
G1 X171.67 Y84.339 E0.04199 ; Skirt
G1 X170.488 Y84.229 E0.04176 ; Skirt
G1 X60.481 Y84.229 E3.86937 ; Skirt
G2 X57.032 Y85.282 I0.004 J6.188 E0.12862; Skirt
G1 X57.21 Y85.58 F9000 ; move to first Skirt point (0.000000 == 1500.000000)
G1 F1200
G2 X54.582 Y90.258 I3.272 J4.915 E0.19578; Skirt
G1 X54.578 Y140.562 E1.76937 ; Skirt
G1 X54.747 Y141.906 E0.04767 ; Skirt
G1 X55.218 Y143.18 E0.04775 ; Skirt
G2 X60.367 Y146.421 I5.281 J-2.679 E0.22457; Skirt
G1 X170.542 Y146.423 E3.87528 ; Skirt
G1 X171.892 Y146.257 E0.04784 ; Skirt
G1 X173.168 Y145.788 E0.04784 ; Skirt
G2 X176.414 Y140.828 I-2.669 J-5.289 E0.21820; Skirt
G1 X176.417 Y90.236 E1.77949 ; Skirt
G1 X176.26 Y89.122 E0.03957 ; Skirt
G1 X175.897 Y88.06 E0.03948 ; Skirt
G1 X175.34 Y87.086 E0.03948 ; Skirt
G1 X174.605 Y86.231 E0.03965 ; Skirt
G1 X173.726 Y85.533 E0.03948 ; Skirt
G1 X172.686 Y84.995 E0.04118 ; Skirt
G1 X171.603 Y84.681 E0.03967 ; Skirt
G1 X170.488 Y84.577 E0.0394 ; Skirt
G1 X60.483 Y84.577 E3.86929 ; Skirt
G1 X59.132 Y84.737 E0.04785 ; Skirt
G2 X57.261 Y85.550 I1.262 J5.464 E0.07208; Skirt
G1 X57.439 Y85.849 F9000 ; move to first Skirt point (0.000000 == 1500.000000)
G1 F1200
G2 X54.930 Y90.277 I3.032 J4.643 E0.18587; Skirt
G1 X54.926 Y140.557 E1.76855 ; Skirt
G1 X55.085 Y141.823 E0.04488 ; Skirt
G1 X55.529 Y143.021 E0.04495 ; Skirt
G2 X60.376 Y146.073 I4.969 J-2.517 E0.21143; Skirt
G1 X170.541 Y146.074 E3.87493 ; Skirt
G1 X171.809 Y145.918 E0.04495 ; Skirt
G1 X173.01 Y145.477 E0.04502 ; Skirt
G2 X176.066 Y140.807 I-2.511 J-4.978 E0.20544; Skirt
G1 X176.069 Y90.253 E1.77818 ; Skirt
G1 X175.922 Y89.204 E0.03725 ; Skirt
G1 X175.58 Y88.205 E0.03716 ; Skirt
G1 X175.055 Y87.287 E0.03716 ; Skirt
G1 X174.365 Y86.483 E0.03729 ; Skirt
G1 X173.538 Y85.826 E0.03716 ; Skirt
G1 X172.556 Y85.319 E0.03886 ; Skirt
G1 X171.539 Y85.023 E0.03726 ; Skirt
G1 X170.488 Y84.926 E0.03713 ; Skirt
G1 X60.485 Y84.926 E3.86922 ; Skirt
G1 X59.214 Y85.076 E0.04502 ; Skirt
G1 X57.969 Y85.534 E0.04665 ; Skirt
G1 X57.491 Y85.818 E0.01957 ; Skirt
G1 E-4 F2400 ; retract
G1 X94.014 Y127.256 F9000 ; move to first Internal perimeter point (0.000000 == 1500.000000)
G1 E4 F2400 ; unretract
;TYPE:Internal perimeter
G1 F1200
G2 X93.003 Y129.494 I1.980 J2.242 E0.08901; Internal perimeter
G2 X93.018 Y131.798 I22.433 J1.006 E0.08109; Internal perimeter
G2 X96.487 Y134.497 I3.077 J-0.376 E0.17223; Internal perimeter
G1 X98.436 Y134.497 E0.06855 ; Internal perimeter
G1 X98.924 Y134.497 E0.01714 ; Internal perimeter
G1 X101.36 Y134.497 E0.08569 ; Internal perimeter
G1 X101.847 Y134.497 E0.01714 ; Internal perimeter
G1 X103.796 Y134.497 E0.06855 ; Internal perimeter
G1 X104.283 Y134.497 E0.01714 ; Internal perimeter
G1 X106.72 Y134.497 E0.08569 ; Internal perimeter
G1 X107.207 Y134.497 E0.01714 ; Internal perimeter
G1 X109.156 Y134.497 E0.06855 ; Internal perimeter
G1 X109.643 Y134.497 E0.01714 ; Internal perimeter
G1 X112.079 Y134.497 E0.08569 ; Internal perimeter
G1 X112.567 Y134.497 E0.01714 ; Internal perimeter
G1 X114.516 Y134.497 E0.06855 ; Internal perimeter
G2 X117.997 Y131.506 I0.388 J-3.069 E0.18240; Internal perimeter
G2 X117.982 Y129.202 I-22.433 J-1.006 E0.08109; Internal perimeter
G2 X114.513 Y126.503 I-3.077 J0.376 E0.17224; Internal perimeter
G1 X112.564 Y126.503 E0.06855 ; Internal perimeter
G1 X112.076 Y126.503 E0.01714 ; Internal perimeter
G1 X109.64 Y126.503 E0.08569 ; Internal perimeter
G1 X109.153 Y126.503 E0.01714 ; Internal perimeter
G1 X107.204 Y126.503 E0.06855 ; Internal perimeter
G1 X106.717 Y126.503 E0.01714 ; Internal perimeter
G1 X104.28 Y126.503 E0.08569 ; Internal perimeter
G1 X103.793 Y126.503 E0.01714 ; Internal perimeter
G1 X101.844 Y126.503 E0.06855 ; Internal perimeter
G1 X101.357 Y126.503 E0.01714 ; Internal perimeter
G1 X98.921 Y126.503 E0.08569 ; Internal perimeter
G1 X98.433 Y126.503 E0.01714 ; Internal perimeter
G1 X96.484 Y126.503 E0.06855 ; Internal perimeter
G2 X94.059 Y127.217 I-0.387 J3.159 E0.09129; Internal perimeter
G1 X94.295 Y127.474 F9000 ; move to first Internal perimeter point (0.000000 == 1500.000000)
G1 F1200
G2 X93.352 Y129.496 I1.702 J2.025 E0.08096; Internal perimeter
G1 X93.352 Y131.504 E0.07063 ; Internal perimeter
G2 X95.996 Y134.148 I2.647 J-0.003 E0.14594; Internal perimeter
G1 X96.487 Y134.148 E0.01728 ; Internal perimeter
G1 X98.436 Y134.148 E0.06855 ; Internal perimeter
G1 X98.924 Y134.148 E0.01714 ; Internal perimeter
G1 X101.36 Y134.148 E0.08569 ; Internal perimeter
G1 X101.847 Y134.148 E0.01714 ; Internal perimeter
G1 X103.796 Y134.148 E0.06855 ; Internal perimeter
G1 X104.283 Y134.148 E0.01714 ; Internal perimeter
G1 X106.72 Y134.148 E0.08569 ; Internal perimeter
G1 X107.207 Y134.148 E0.01714 ; Internal perimeter
G1 X109.156 Y134.148 E0.06855 ; Internal perimeter
G1 X109.643 Y134.148 E0.01714 ; Internal perimeter
G1 X112.079 Y134.148 E0.08569 ; Internal perimeter
G1 X112.567 Y134.148 E0.01714 ; Internal perimeter
G1 X114.516 Y134.148 E0.06855 ; Internal perimeter
G1 X115.008 Y134.148 E0.0173 ; Internal perimeter
G2 X117.649 Y131.504 I-0.008 J-2.649 E0.14583; Internal perimeter
G2 X117.635 Y129.236 I-21.067 J-1.004 E0.07977; Internal perimeter
G2 X115.004 Y126.852 I-2.634 J0.263 E0.13681; Internal perimeter
G1 X114.513 Y126.852 E0.01728 ; Internal perimeter
G1 X112.564 Y126.852 E0.06855 ; Internal perimeter
G1 X112.076 Y126.852 E0.01714 ; Internal perimeter
G1 X109.64 Y126.852 E0.08569 ; Internal perimeter
G1 X109.153 Y126.852 E0.01714 ; Internal perimeter
G1 X107.204 Y126.852 E0.06855 ; Internal perimeter
G1 X106.717 Y126.852 E0.01714 ; Internal perimeter
G1 X104.28 Y126.852 E0.08569 ; Internal perimeter
G1 X103.793 Y126.852 E0.01714 ; Internal perimeter
G1 X101.844 Y126.852 E0.06855 ; Internal perimeter
G1 X101.357 Y126.852 E0.01714 ; Internal perimeter
G1 X98.921 Y126.852 E0.08569 ; Internal perimeter
G1 X98.433 Y126.852 E0.01714 ; Internal perimeter
G1 X96.484 Y126.852 E0.06855 ; Internal perimeter
G1 X95.992 Y126.852 E0.0173 ; Internal perimeter
G2 X94.341 Y127.436 I0.007 J2.645 E0.06277; Internal perimeter
G1 X94.563 Y127.704 F9000 ; move to first External perimeter point (0.000000 == 1500.000000)
;TYPE:External perimeter
G1 F1200
G2 X93.700 Y129.498 I1.439 J1.797 E0.07250; External perimeter
G2 X93.711 Y131.729 I23.025 J1.002 E0.07849; External perimeter
G2 X95.998 Y133.800 I2.289 J-0.230 E0.11906; External perimeter
G1 X96.487 Y133.8 E0.0172 ; External perimeter
G1 X98.436 Y133.8 E0.06855 ; External perimeter
G1 X98.924 Y133.8 E0.01714 ; External perimeter
G1 X101.36 Y133.8 E0.08569 ; External perimeter
G1 X101.847 Y133.8 E0.01714 ; External perimeter
G1 X103.796 Y133.8 E0.06855 ; External perimeter
G1 X104.283 Y133.8 E0.01714 ; External perimeter
G1 X106.72 Y133.8 E0.08569 ; External perimeter
G1 X107.207 Y133.8 E0.01714 ; External perimeter
G1 X109.156 Y133.8 E0.06855 ; External perimeter
G1 X109.643 Y133.8 E0.01714 ; External perimeter
G1 X112.079 Y133.8 E0.08569 ; External perimeter
G1 X112.567 Y133.8 E0.01714 ; External perimeter
G1 X114.516 Y133.8 E0.06855 ; External perimeter
G2 X117.097 Y132.446 I0.343 J-2.482 E0.10993; External perimeter
G1 X117.119 Y132.393 E0.00202 ; External perimeter
G2 X117.300 Y131.502 I-2.123 J-0.895 E0.03224; External perimeter
G2 X117.289 Y129.271 I-23.025 J-1.002 E0.07849; External perimeter
G2 X115.002 Y127.200 I-2.289 J0.230 E0.11908; External perimeter
G1 X114.513 Y127.2 E0.0172 ; External perimeter
G1 X112.564 Y127.2 E0.06855 ; External perimeter
G1 X112.077 Y127.2 E0.01714 ; External perimeter
G1 X109.64 Y127.2 E0.08569 ; External perimeter
G1 X109.153 Y127.2 E0.01714 ; External perimeter
G1 X107.204 Y127.2 E0.06855 ; External perimeter
G1 X106.717 Y127.2 E0.01714 ; External perimeter
G1 X104.28 Y127.2 E0.08569 ; External perimeter
G1 X103.793 Y127.2 E0.01714 ; External perimeter
G1 X101.844 Y127.2 E0.06855 ; External perimeter
G1 X101.357 Y127.2 E0.01714 ; External perimeter
G1 X98.921 Y127.2 E0.08569 ; External perimeter
G1 X98.433 Y127.2 E0.01714 ; External perimeter
G1 X96.484 Y127.2 E0.06855 ; External perimeter
G2 X94.611 Y127.667 I-0.351 J2.580 E0.06956; External perimeter
;WIPE_START
G1 X94.51 Y127.683 F9000 ; move inwards before travel
;WIPE_END
G1 E-4 F2400 ; retract
G1 X95.495 Y137.686 F9000 ; move to first Internal perimeter point (0.000000 == 1500.000000)
G1 E4 F2400 ; unretract
;TYPE:Internal perimeter
G1 F1200
G2 X93.253 Y140.603 I0.311 J2.559 E0.14451; Internal perimeter
G2 X95.572 Y142.922 I2.487 J-0.168 E0.12587; Internal perimeter
G1 X101.428 Y142.922 E0.20601 ; Internal perimeter
G2 X103.747 Y139.997 I-0.234 J-2.567 E0.14722; Internal perimeter
G2 X101.428 Y137.678 I-2.487 J0.168 E0.12587; Internal perimeter
G1 X95.555 Y137.68 E0.2066 ; Internal perimeter
G1 X95.589 Y138.027 F9000 ; move to first Internal perimeter point (0.000000 == 1500.000000)
G1 F1200
G2 X93.602 Y140.014 I0.148 J2.135 E0.10781; Internal perimeter
G2 X95.222 Y142.517 I2.249 J0.320 E0.11489; Internal perimeter
G2 X95.589 Y142.573 I0.457 J-1.764 E0.01306; Internal perimeter
G1 X101.411 Y142.573 E0.2048 ; Internal perimeter
G2 X103.399 Y140.586 I-0.149 J-2.137 E0.10782; Internal perimeter
G2 X101.778 Y138.083 I-2.254 J-0.317 E0.11493; Internal perimeter
G2 X101.411 Y138.027 I-0.457 J1.764 E0.01305; Internal perimeter
G1 X95.649 Y138.027 E0.20269 ; Internal perimeter
G1 X95.649 Y138.375 F9000 ; move to first External perimeter point (0.000000 == 1500.000000)
;TYPE:External perimeter
G1 F1200
G2 X93.950 Y140.031 I0.086 J1.788 E0.09123; External perimeter
G2 X95.307 Y142.178 I1.907 J0.297 E0.09801; External perimeter
G2 X95.606 Y142.225 I0.377 J-1.426 E0.01065; External perimeter
G1 X101.394 Y142.225 E0.2036 ; External perimeter
G2 X103.050 Y140.569 I-0.135 J-1.791 E0.08972; External perimeter
G2 X101.693 Y138.422 I-1.907 J-0.297 E0.09801; External perimeter
G2 X101.394 Y138.375 I-0.377 J1.426 E0.01065; External perimeter
G1 X95.709 Y138.375 E0.19998 ; External perimeter
;WIPE_START
G1 X95.627 Y138.338 F9000 ; move inwards before travel
;WIPE_END
G1 E-4 F2400 ; retract
G1 X131.416 Y137.602 F9000 ; move to first Internal perimeter point (0.000000 == 1500.000000)
G1 E4 F2400 ; unretract
;TYPE:Internal perimeter
G1 F1200
G2 X131.415 Y137.542 I4.584 J-0.106 E1.01103; Internal perimeter
G1 X131.764 Y137.54 F9000 ; move to first Internal perimeter point (0.000000 == 1500.000000)
G1 F1200
G2 X131.764 Y137.480 I4.236 J-0.030 E0.93242; Internal perimeter
G1 X132.112 Y137.482 F9000 ; move to first External perimeter point (0.000000 == 1500.000000)
;TYPE:External perimeter
G1 F1200
G2 X132.113 Y137.422 I3.888 J0.035 E0.85819; External perimeter
;WIPE_START
G1 X132.096 Y137.491 F9000 ; move inwards before travel
;WIPE_END
G1 E-4 F2400 ; retract
G1 X134.525 Y130.341 F9000 ; move to first Internal perimeter point (0.000000 == 1500.000000)
G1 E4 F2400 ; unretract
;TYPE:Internal perimeter
G1 F1200
G2 X134.381 Y130.290 I1.459 J-4.347 E1.00777; Internal perimeter
G2 X134.469 Y130.322 I0.768 J-1.975 E0.00326; Internal perimeter
G1 X134.586 Y129.994 F9000 ; move to first Internal perimeter point (0.000000 == 1500.000000)
G1 F1200
G1 X134.637 Y130.011 E0.00191 ; Internal perimeter
G1 X134.682 Y130.026 E0.00166 ; Internal perimeter
G2 X134.530 Y129.973 I1.319 J-4.026 E0.92878; Internal perimeter
G1 X134.651 Y129.646 F9000 ; move to first External perimeter point (0.000000 == 1500.000000)
;TYPE:External perimeter
G1 F1200
G2 X134.595 Y129.625 I1.337 J-3.651 E0.85819; External perimeter
;WIPE_START
G1 X134.654 Y129.664 F9000 ; move inwards before travel
;WIPE_END
G1 E-4 F2400 ; retract
G1 X151.143 Y131.094 F9000 ; move to first Internal perimeter point (0.000000 == 1500.000000)
G1 E4 F2400 ; unretract
;TYPE:Internal perimeter
G1 F1200
G2 X151.169 Y130.843 I7.557 J0.656 E1.66944; Internal perimeter
G2 X151.149 Y131.034 I8.688 J1.006 E0.00678; Internal perimeter
G1 X151.496 Y131.068 F9000 ; move to first Internal perimeter point (0.000000 == 1500.000000)
G1 F1200
G2 X151.521 Y130.836 I7.207 J0.659 E1.59359; Internal perimeter
G2 X151.502 Y131.008 I9.329 J1.118 E0.00608; Internal perimeter
G1 X151.848 Y131.044 F9000 ; move to first External perimeter point (0.000000 == 1500.000000)
;TYPE:External perimeter
G1 F1200
G2 X151.861 Y130.926 I6.853 J0.695 E1.51450; External perimeter
G1 X151.855 Y130.984 E0.00207 ; External perimeter
;WIPE_START
G1 X151.831 Y131.052 F9000 ; move inwards before travel
;WIPE_END
G1 E-4 F2400 ; retract
G1 X81.733 Y104.714 F9000 ; move to first Internal perimeter point (0.000000 == 1500.000000)
G1 E4 F2400 ; unretract
;TYPE:Internal perimeter
G1 F1200
